X: 25
T: Ephie McKnab
%R: jig
B: "Scots Reel & Country Dances for the Year 1769", R.Bremner, ed. p.111 #1
F: http://digital.nls.uk/special-collections-of-printed-music/pageturner.cfm?id=104993891
Z: 2016 John Chambers <jc:trillian.mit.edu>
M: 6/8
L: 1/8
K: Gmix
% - - - - - - - - - - - - - - - - - - - - - - - - - - - - -
V: 1
A/c/ |\
d>fd dcA | G2G G2A/_B/ | c>dc cAG | F2F F2e |\
(Tf>ef) def | gfg cfg | agf dcA | d2G G2 :|
|: e/^f/ |\
(g>a)g gdB | gdB G2e | (f>gf) fcA | fcA F2e |\
(Tf>ef) def | gfg cfg | agf dcA | d2G G2 :|
% - - - - - - - - - - - - - - - - - - - - - - - - - - - - -
V: 2 clef=bass middle=d
z |\
g3 g3 | g3 g3 | f3  f3 | f3 f3 |\
d3 d3 | c3 c3 | f3 ^f3 | g3 G2 :|
|: z |\
g3 g3 | g3 g3 | f3  f3 | f3 f3 |\
d3 d3 | c3 e3 | f3 ^f3 | g3 G2 :|
% - - - - - - - - - - Dance description - - - - - - - - - -
%%begintext align
%% Hands across .|
%% and back again :|
%% cross over one Couple .|.
%% right and left at Top :|:
%%endtext
%%sep 2 2 400


